assets/icons/video/filled.svg

<svg height="24" width="24" xmlns="http://www.w3.org/2000/svg"><path d="M3 3v17h1v-1h1v1h1V3H5v1H4V3H3zm4 0v8h10V3H7zm11 0v17h1v-1h1v1h1V3h-1v1h-1V3h-1zM4 5h1v1H4V5zm15 0h1v1h-1V5zM4 7h1v1H4V7zm15 0h1v1h-1V7zM4 9h1v1H4V9zm15 0h1v1h-1V9zM4 11h1v1H4v-1zm15 0h1v1h-1v-1zM7 12v8h10v-8H7zm-3 1h1v1H4v-1zm15 0h1v1h-1v-1zM4 15h1v1H4v-1zm15 0h1v1h-1v-1zM4 17h1v1H4v-1zm15 0h1v1h-1v-1z" style="fill:gray"/></svg>

<?xml version="1.0" encoding="UTF-8" standalone="no"?>
<svg
   viewBox="0 0 24 24"
   height="24"
   width="24"
   version="1.1"
   id="svg6"
   sodipodi:docname="filled.svg"
   inkscape:version="1.2 (1:1.2.1+202207142221+cd75a1ee6d)"
   xmlns:inkscape="http://www.inkscape.org/namespaces/inkscape"
   xmlns:sodipodi="http://sodipodi.sourceforge.net/DTD/sodipodi-0.dtd"
   xmlns="http://www.w3.org/2000/svg"
   xmlns:svg="http://www.w3.org/2000/svg">
  <defs
     id="defs10" />
  <sodipodi:namedview
     id="namedview8"
     pagecolor="#ffffff"
     bordercolor="#666666"
     borderopacity="1.0"
     inkscape:pageshadow="2"
     inkscape:pageopacity="0.0"
     inkscape:pagecheckerboard="0"
     showgrid="true"
     inkscape:snap-page="true"
     inkscape:zoom="19.79899"
     inkscape:cx="12.879445"
     inkscape:cy="8.1822356"
     inkscape:window-width="1920"
     inkscape:window-height="1043"
     inkscape:window-x="0"
     inkscape:window-y="0"
     inkscape:window-maximized="1"
     inkscape:current-layer="svg6"
     inkscape:showpageshadow="2"
     inkscape:deskcolor="#d1d1d1">
    <inkscape:grid
       type="xygrid"
       id="grid1016" />
  </sodipodi:namedview>
  <path
     id="rect30"
     style="fill:#808080;fill-rule:evenodd;stroke:none;stroke-width:2;stroke-linecap:square;stroke-linejoin:round"
     d="M 3 3 L 3 20 L 4 20 L 4 19 L 5 19 L 5 20 L 6 20 L 6 3 L 5 3 L 5 4 L 4 4 L 4 3 L 3 3 z M 7 3 L 7 11 L 17 11 L 17 3 L 7 3 z M 18 3 L 18 20 L 19 20 L 19 19 L 20 19 L 20 20 L 21 20 L 21 3 L 20 3 L 20 4 L 19 4 L 19 3 L 18 3 z M 4 5 L 5 5 L 5 6 L 4 6 L 4 5 z M 19 5 L 20 5 L 20 6 L 19 6 L 19 5 z M 4 7 L 5 7 L 5 8 L 4 8 L 4 7 z M 19 7 L 20 7 L 20 8 L 19 8 L 19 7 z M 4 9 L 5 9 L 5 10 L 4 10 L 4 9 z M 19 9 L 20 9 L 20 10 L 19 10 L 19 9 z M 4 11 L 5 11 L 5 12 L 4 12 L 4 11 z M 19 11 L 20 11 L 20 12 L 19 12 L 19 11 z M 7 12 L 7 20 L 17 20 L 17 12 L 7 12 z M 4 13 L 5 13 L 5 14 L 4 14 L 4 13 z M 19 13 L 20 13 L 20 14 L 19 14 L 19 13 z M 4 15 L 5 15 L 5 16 L 4 16 L 4 15 z M 19 15 L 20 15 L 20 16 L 19 16 L 19 15 z M 4 17 L 5 17 L 5 18 L 4 18 L 4 17 z M 19 17 L 20 17 L 20 18 L 19 18 L 19 17 z " />
  <rect
     style="fill:#808080;fill-rule:evenodd;stroke:none;stroke-width:2;stroke-linecap:round;stroke-linejoin:round"
     id="rect356"
     width="10"
     height="1"
     x="7"
     y="3" />
</svg>
